packages/swarm-icons/src/icons/solid/Notif.svg

<svg xmlns="http://www.w3.org/2000/svg" width="18" height="18" viewBox="0 0 18 18">
  <path fill="#A2A2A2" d="M7.66666667,3.52658579 L7.66666667,3.33333333 C7.66666667,2.59695367 8.26362033,2 9,2 C9.73637967,2 10.3333333,2.59695367 10.3333333,3.33333333 L10.3333333,3.52658579 C12.2609926,4.10028525 13.6666667,5.88598624 13.6666667,8 L13.6666667,10.6666667 C13.6666667,11.1111111 13.8888889,11.3333333 14.3333333,11.3333333 C14.7015232,11.3333333 15,11.6318102 15,12 L15,12.3333333 C15,12.8856181 14.5522847,13.3333333 14,13.3333333 L4,13.3333333 C3.44771525,13.3333333 3,12.8856181 3,12.3333333 L3,12 C3,11.6318102 3.29847683,11.3333333 3.66666667,11.3333333 C4.11111111,11.3333333 4.33333333,11.1111111 4.33333333,10.6666667 L4.33333333,8 C4.33333333,5.88598624 5.73900737,4.10028525 7.66666667,3.52658579 Z M8,14.5 L10,14.5 C10.5522847,14.5 11,14.9477153 11,15.5 C11,16.0522847 10.5522847,16.5 10,16.5 L8,16.5 C7.44771525,16.5 7,16.0522847 7,15.5 C7,14.9477153 7.44771525,14.5 8,14.5 Z"/>
</svg>

<svg xmlns="http://www.w3.org/2000/svg" width="18" height="18"><path fill="#A2A2A2" d="M7.667 3.527v-.194a1.333 1.333 0 112.666 0v.194A4.669 4.669 0 0113.667 8v2.667c0 .444.222.666.666.666.369 0 .667.299.667.667v.333a1 1 0 01-1 1H4a1 1 0 01-1-1V12c0-.368.298-.667.667-.667.444 0 .666-.222.666-.666V8c0-2.114 1.406-3.9 3.334-4.473zM8 14.5h2a1 1 0 010 2H8a1 1 0 010-2z"/></svg>
